packages/calcite-ui-icons/icons/mosaic-method-closest-to-center-24.svg

<?xml version="1.0" encoding="UTF-8"?><svg id="icons" xmlns="http://www.w3.org/2000/svg" viewBox="0 0 24 24"><defs><style>.cls-1{fill:none;}.cls-2{fill:#6f6f6f;opacity:.25;}.cls-3{opacity:.5;}</style></defs><path class="cls-2" d="M1,2h4v4H1V2ZM6,7v4h4v-4h-4Z"/><path d="M11.46613,11h-.46613v-4h4v2.23651c.32593-.06268.66052-.09839,1-.11664V1H0v11h10.53857c.2782-.36157.58856-.69556.92755-1ZM11,2h4v4h-4V2ZM5,11H1v-4h4v4ZM5,6H1V2h4v4ZM10,11h-4v-4h4v4ZM10,6h-4V2h4v4ZM16.40002,10.09998c-3.36584,0-6.11896,2.59979-6.37482,5.90002h-.02521v1h.02521c.25586,3.30005,3.00897,5.89996,6.37482,5.89996,3.53461,0,6.39996-2.86542,6.39996-6.39996,0-3.53473-2.86536-6.40002-6.39996-6.40002ZM16,21.88007c-2.62494-.19397-4.73346-2.26831-4.97467-4.88007h4.97467v4.88007ZM16,16h-4.97467c.24121-2.61176,2.34973-4.6861,4.97467-4.88007v4.88007ZM17,11.13495c2.53198.28137,4.53943,2.31946,4.77448,4.86505h-4.77448v-4.86505ZM17,21.86505v-4.87405h4.77448c-.23505,2.54559-2.24249,4.59268-4.77448,4.87405Z"/><path class="cls-3" d="M6,2h4v4h-4V2ZM11,7v4h.46613c.9798-.87988,2.19061-1.505,3.53387-1.76349v-2.23651h-4Z"/><rect class="cls-1" width="24" height="24"/></svg>

<svg xmlns="http://www.w3.org/2000/svg" viewBox="0 0 24 24"><path d="M1 2h4v4H1V2zm5 5v4h4V7H6z" fill="#6f6f6f" opacity=".25"/><path d="M11.466 11H11V7h4v2.237c.326-.063.66-.099 1-.117V1H0v11h10.539a7.45 7.45 0 0 1 .927-1zM11 2h4v4h-4V2zm-6 9H1V7h4v4zm0-5H1V2h4v4zm5 5H6V7h4v4zm0-5H6V2h4v4zm6.4 4.1a6.396 6.396 0 0 0-6.375 5.9H10v1h.025a6.396 6.396 0 0 0 12.775-.5 6.4 6.4 0 0 0-6.4-6.4zM16 21.88A5.404 5.404 0 0 1 11.025 17H16v4.88zM16 16h-4.975A5.404 5.404 0 0 1 16 11.12V16zm1-4.865A5.407 5.407 0 0 1 21.774 16H17v-4.865zm0 10.73v-4.874h4.774A5.416 5.416 0 0 1 17 21.865z"/><path d="M6 2h4v4H6V2zm5 5v4h.466A7.373 7.373 0 0 1 15 9.237V7h-4z" opacity=".5"/><path fill="none" d="M0 0h24v24H0z"/></svg>
